X: 10045
T: JESSAMYN'S JIG
C: Bob McQuillen 16 July 93
B: Bob's Note Book 10 #45
%R: jig
Z: 2020 John Chambers <jc:trillian.mit.edu>
M: 6/8
L: 1/8
K: G
BA \
| G2D GAB | c2B A2c | B2D GBc | d2B GBA |\
| GED GAB | c2d efg | dBA GAB | A3 G :|
|: Bd \
| g2g ege | dBG GBd | g2g ege | dBG ABd |\
| g2g age | dge d2B | cde dgB | A3 G :|
%%begintext align
%% Jessamyn Iselin is
%% Alouette and Mike Iselin's youngest, and of course
%% all the other kids have _their_ own tunes, and you
%% know there's no way I'd leave you out, Jessamyn!
%%endtext

%%sep 1 1 500

%%sep 1 1 500

